Newaita/actions/22/tab-new.svg

<?xml version="1.0" encoding="UTF-8"?>
<svg xmlns="http://www.w3.org/2000/svg" xmlns:xlink="http://www.w3.org/1999/xlink" width="22pt" height="22pt" viewBox="0 0 22 22" version="1.1">
<defs>
<filter id="alpha" filterUnits="objectBoundingBox" x="0%" y="0%" width="100%" height="100%">
  <feColorMatrix type="matrix" in="SourceGraphic" values="0 0 0 0 1 0 0 0 0 1 0 0 0 0 1 0 0 0 1 0"/>
</filter>
<mask id="mask0">
  <g filter="url(#alpha)">
<rect x="0" y="0" width="22" height="22" style="fill:rgb(0%,0%,0%);fill-opacity:0.988235;stroke:none;"/>
  </g>
</mask>
<clipPath id="clip1">
  <rect x="0" y="0" width="22" height="22"/>
</clipPath>
<g id="surface5" clip-path="url(#clip1)">
<path style=" stroke:none;fill-rule:nonzero;fill:rgb(25.882354%,25.882354%,25.882354%);fill-opacity:1;" d="M 0.910156 9.722656 C 0.914062 14.332031 0.898438 14.851562 0.917969 19.460938 C 0.992188 20.527344 2.070312 21.230469 3.082031 21.09375 C 8.484375 21.085938 13.886719 21.105469 19.289062 21.082031 C 20.355469 21.007812 21.058594 19.929688 20.921875 18.917969 L 20.921875 9.722656 L 6.367188 9.722656 L 6.367188 11.085938 L 19.554688 11.085938 L 19.554688 18.820312 C 19.574219 19.621094 18.722656 19.800781 18.089844 19.726562 L 3.183594 19.726562 C 2.382812 19.746094 2.203125 18.894531 2.273438 18.261719 L 2.273438 9.722656 Z M 0.910156 9.722656 "/>
</g>
<mask id="mask1">
  <g filter="url(#alpha)">
<rect x="0" y="0" width="22" height="22" style="fill:rgb(0%,0%,0%);fill-opacity:0.988235;stroke:none;"/>
  </g>
</mask>
<clipPath id="clip2">
  <rect x="0" y="0" width="22" height="22"/>
</clipPath>
<g id="surface8" clip-path="url(#clip2)">
<path style=" stroke:none;fill-rule:nonzero;fill:rgb(25.882354%,25.882354%,25.882354%);fill-opacity:1;" d="M 2.730469 1.082031 C 1.722656 1.082031 0.910156 1.894531 0.910156 2.902344 L 0.910156 10.175781 L 2.273438 10.175781 L 2.273438 3.355469 C 2.273438 2.851562 2.679688 2.445312 3.183594 2.445312 L 6.367188 2.445312 L 6.367188 1.082031 Z M 2.730469 1.082031 "/>
</g>
<mask id="mask2">
  <g filter="url(#alpha)">
<rect x="0" y="0" width="22" height="22" style="fill:rgb(0%,0%,0%);fill-opacity:0.988235;stroke:none;"/>
  </g>
</mask>
<clipPath id="clip3">
  <rect x="0" y="0" width="22" height="22"/>
</clipPath>
<g id="surface11" clip-path="url(#clip3)">
<path style=" stroke:none;fill-rule:nonzero;fill:rgb(14.901961%,65.098041%,60.392159%);fill-opacity:1;" d="M 18.191406 2.902344 C 19.199219 2.902344 20.011719 3.710938 20.011719 4.71875 L 20.011719 9.722656 L 18.648438 9.722656 L 18.648438 5.175781 C 18.648438 4.671875 18.242188 4.265625 17.738281 4.265625 L 14.554688 4.265625 L 14.554688 2.902344 Z M 18.191406 2.902344 "/>
</g>
</defs>
<g id="surface1">
<use xlink:href="#surface5" mask="url(#mask0)"/>
<use xlink:href="#surface8" mask="url(#mask1)"/>
<path style=" stroke:none;fill-rule:nonzero;fill:rgb(25.882354%,25.882354%,25.882354%);fill-opacity:1;" d="M 6.367188 1.082031 L 7.730469 1.082031 L 7.730469 10.175781 L 6.367188 10.175781 Z M 6.367188 1.082031 "/>
<use xlink:href="#surface11" mask="url(#mask2)"/>
<path style=" stroke:none;fill-rule:nonzero;fill:rgb(14.901961%,65.098041%,60.392159%);fill-opacity:1;" d="M 14.554688 4.265625 L 14.554688 2.902344 L 7.730469 2.902344 L 7.730469 4.265625 Z M 14.554688 4.265625 "/>
</g>
</svg>

<svg xmlns="http://www.w3.org/2000/svg" xmlns:xlink="http://www.w3.org/1999/xlink" width="22pt" height="22pt" viewBox="0 0 22 22"><defs><filter id="a" filterUnits="objectBoundingBox" x="0%" y="0%" width="100%" height="100%"><feColorMatrix in="SourceGraphic" values="0 0 0 0 1 0 0 0 0 1 0 0 0 0 1 0 0 0 1 0"/></filter><mask id="f"><path fill-opacity=".988" d="M0 0h22v22H0z" filter="url(#a)"/></mask><clipPath id="b"><path d="M0 0h22v22H0z"/></clipPath><g id="e" clip-path="url(#b)"><path d="M.91 9.723c.004 4.609-.012 5.129.008 9.738.074 1.066 1.152 1.77 2.164 1.633 5.402-.008 10.805.011 16.207-.012 1.066-.074 1.77-1.152 1.633-2.164V9.723H6.367v1.363h13.188v7.734c.02.801-.832.98-1.465.907H3.184c-.801.02-.98-.832-.91-1.465v-8.54zm0 0" fill="#424242"/></g><mask id="h"><path fill-opacity=".988" d="M0 0h22v22H0z" filter="url(#a)"/></mask><clipPath id="c"><path d="M0 0h22v22H0z"/></clipPath><g id="g" clip-path="url(#c)"><path d="M2.73 1.082c-1.007 0-1.82.813-1.82 1.82v7.274h1.363v-6.82c0-.504.407-.91.91-.91h3.184V1.081zm0 0" fill="#424242"/></g><mask id="j"><path fill-opacity=".988" d="M0 0h22v22H0z" filter="url(#a)"/></mask><clipPath id="d"><path d="M0 0h22v22H0z"/></clipPath><g id="i" clip-path="url(#d)"><path d="M18.191 2.902c1.008 0 1.82.809 1.82 1.817v5.004h-1.363V5.176a.909.909 0 0 0-.91-.91h-3.183V2.902zm0 0" fill="#26a69a"/></g></defs><use xlink:href="#e" mask="url(#f)"/><use xlink:href="#g" mask="url(#h)"/><path d="M6.367 1.082H7.73v9.094H6.367zm0 0" fill="#424242"/><use xlink:href="#i" mask="url(#j)"/><path d="M14.555 4.266V2.902H7.73v1.364zm0 0" fill="#26a69a"/></svg>
